www/assets/icons/smart_button.svg

<svg xmlns="http://www.w3.org/2000/svg" width="24" height="24" viewBox="0 0 24 24" fill='currentColor'><path d="M22 8v6c0 1.1-.9 2-2 2h-1v-2h1V8H4v6h6v2H4c-1.1 0-2-.9-2-2V8c0-1.1.9-2 2-2h16c1.1 0 2 .9 2 2m-7.5 10 1.09-2.41L18 14.5l-2.41-1.09L14.5 11l-1.09 2.41L11 14.5l2.41 1.09zm2.5-5 .62-1.38L19 11l-1.38-.62L17 9l-.62 1.38L15 11l1.38.62zm-2.5 5 1.09-2.41L18 14.5l-2.41-1.09L14.5 11l-1.09 2.41L11 14.5l2.41 1.09zm2.5-5 .62-1.38L19 11l-1.38-.62L17 9l-.62 1.38L15 11l1.38.62z"/></svg>

<svg width="24" height="24" viewBox="0 0 24 24" xmlns="http://www.w3.org/2000/svg" fill='currentColor'><path d="M22 8V14C22 15.1 21.1 16 20 16H19V14H20V8H4V14H10V16H4C2.9 16 2 15.1 2 14V8C2 6.9 2.9 6 4 6H20C21.1 6 22 6.9 22 8ZM14.5 18L15.59 15.59L18 14.5L15.59 13.41L14.5 11L13.41 13.41L11 14.5L13.41 15.59L14.5 18ZM17 13L17.62 11.62L19 11L17.62 10.38L17 9L16.38 10.38L15 11L16.38 11.62L17 13ZM14.5 18L15.59 15.59L18 14.5L15.59 13.41L14.5 11L13.41 13.41L11 14.5L13.41 15.59L14.5 18ZM17 13L17.62 11.62L19 11L17.62 10.38L17 9L16.38 10.38L15 11L16.38 11.62L17 13Z"/></svg>
